;FLAVOR:Marlin
;TIME:4383
;Filament used: 3.6187m
;Layer height: 0.28
;MINX:81.014
;MINY:52.675
;MINZ:0.28
;MAXX:138.73
;MAXY:167.325
;MAXZ:25.2
;Generated with Cura_SteamEngine 4.10.0
M140 S60
M105
M190 S60
M104 S210
M105
M109 S210
M82 ;absolute extrusion mode
M201 X500.00 Y500.00 Z100.00 E5000.00 ;Setup machine max acceleration
M203 X500.00 Y500.00 Z10.00 E50.00 ;Setup machine max feedrate
M204 P500.00 R1000.00 T500.00 ;Setup Print/Retract/Travel acceleration
M205 X8.00 Y8.00 Z0.40 E5.00 ;Setup Jerk
M220 S100 ;Reset Feedrate
M221 S100 ;Reset Flowrate

G28 ;Home

G92 E0 ;Reset Extruder
G1 Z2.0 F3000 ;Move Z Axis up
G1 X10.1 Y20 Z0.28 F5000.0 ;Move to start position
G1 X10.1 Y200.0 Z0.28 F1500.0 E15 ;Draw the first line
G1 X10.4 Y200.0 Z0.28 F5000.0 ;Move to side a little
G1 X10.4 Y20 Z0.28 F1500.0 E30 ;Draw the second line
G92 E0 ;Reset Extruder
G1 Z2.0 F3000 ;Move Z Axis up

G92 E0
G92 E0
G1 F2700 E-5
;LAYER_COUNT:90
;LAYER:0
M107
G0 F6000 X81.683 Y63.329 Z0.28
;TYPE:SKIRT
G1 F2700 E0
G1 F1200 X81.868 Y63.104 E0.01356
G1 X81.945 Y63.02 E0.01887
G1 X82.176 Y62.797 E0.03382
G1 X82.243 Y62.738 E0.03798
G1 X82.491 Y62.538 E0.05281
G1 X82.57 Y62.48 E0.05738
G1 X82.852 Y62.295 E0.07308
G1 X82.932 Y62.248 E0.0774
G1 X83.224 Y62.093 E0.09279
G1 X83.294 Y62.059 E0.09642
G1 X83.616 Y61.919 E0.11277
G1 X83.694 Y61.889 E0.11666
G1 X84.016 Y61.78 E0.13249
G1 X84.096 Y61.754 E0.13641
G1 X84.456 Y61.662 E0.15371
G1 X84.525 Y61.647 E0.157
G1 X84.874 Y61.583 E0.17352
G1 X84.961 Y61.57 E0.17761
G1 X85.327 Y61.532 E0.19475
G1 X85.768 Y61.515 E0.2153
G1 X85.841 Y61.515 E0.2187
G1 X86.276 Y61.533 E0.23897
G1 X86.638 Y61.57 E0.25591
G1 X86.719 Y61.582 E0.25973
G1 X87.085 Y61.65 E0.27706
G1 X87.153 Y61.665 E0.2803
G1 X87.511 Y61.758 E0.29753
G1 X87.581 Y61.779 E0.30093
G1 X87.912 Y61.891 E0.3172
G1 X87.996 Y61.924 E0.3214
G1 X88.314 Y62.065 E0.3376
G1 X88.383 Y62.099 E0.34118
G1 X88.682 Y62.26 E0.357
G1 X88.758 Y62.305 E0.36111
G1 X89.036 Y62.488 E0.37661
G1 X89.11 Y62.541 E0.38084
G1 X89.352 Y62.734 E0.39526
G1 X89.43 Y62.806 E0.4002
G1 X89.653 Y63.023 E0.41469
G1 X89.728 Y63.104 E0.41983
G1 X89.92 Y63.337 E0.43389
G1 X89.99 Y63.433 E0.43942
G1 X90.151 Y63.684 E0.45331
G1 X90.206 Y63.783 E0.45858
G1 X90.325 Y64.025 E0.47114
G1 X90.374 Y64.141 E0.477
G1 X90.47 Y64.42 E0.49074
G1 X90.479 Y64.459 E0.4926
G1 X104.36 Y72.17 E1.23199
G1 X104.361 Y56.623 E1.95593
G1 X104.375 Y56.332 E1.96949
G1 X104.385 Y56.232 E1.97417
G1 X104.429 Y55.938 E1.98801
G1 X104.448 Y55.841 E1.99262
G1 X104.522 Y55.548 E2.00669
G1 X104.552 Y55.453 E2.01133
G1 X104.649 Y55.185 E2.0246
G1 X104.685 Y55.098 E2.02898
G1 X104.81 Y54.833 E2.04263
G1 X104.859 Y54.741 E2.04748
G1 X105.012 Y54.489 E2.06121
G1 X105.061 Y54.416 E2.0653
G1 X105.236 Y54.178 E2.07906
G1 X105.303 Y54.096 E2.08399
G1 X105.501 Y53.879 E2.09767
G1 X105.567 Y53.814 E2.10198
G1 X105.791 Y53.61 E2.11609
G1 X105.874 Y53.542 E2.12108
G1 X106.112 Y53.368 E2.13481
G1 X106.188 Y53.317 E2.13907
G1 X106.435 Y53.169 E2.15248
G1 X106.527 Y53.121 E2.15731
G1 X106.791 Y52.998 E2.17088
G1 X106.875 Y52.963 E2.17511
G1 X107.153 Y52.863 E2.18887
G1 X107.249 Y52.834 E2.19354
G1 X107.534 Y52.763 E2.20722
G1 X107.624 Y52.745 E2.21149
G1 X107.916 Y52.7 E2.22525
G1 X108.023 Y52.689 E2.23026
G1 X108.358 Y52.675 E2.24587
G1 X111.415 Y52.676 E2.38822
G1 X111.72 Y52.692 E2.40244
G1 X111.819 Y52.702 E2.40707
G1 X112.107 Y52.746 E2.42064
G1 X112.201 Y52.765 E2.4251
G1 X112.49 Y52.838 E2.43898
G1 X112.586 Y52.868 E2.44367
G1 X112.851 Y52.964 E2.45679
G1 X112.94 Y53.001 E2.46128
G1 X113.215 Y53.132 E2.47546
G1 X113.302 Y53.179 E2.48007
G1 X113.544 Y53.325 E2.49323
G1 X113.622 Y53.377 E2.49759
G1 X113.86 Y53.553 E2.51137
G1 X113.939 Y53.618 E2.51614
G1 X114.156 Y53.816 E2.52982
G1 X114.223 Y53.883 E2.53423
G1 X114.426 Y54.107 E2.54831
G1 X114.486 Y54.181 E2.55274
G1 X114.657 Y54.41 E2.56605
G1 X114.717 Y54.499 E2.57105
G1 X114.869 Y54.756 E2.58495
G1 X114.914 Y54.841 E2.58943
G1 X115.037 Y55.104 E2.60295
G1 X115.072 Y55.19 E2.60727
G1 X115.172 Y55.468 E2.62103
G1 X115.201 Y55.564 E2.6257
G1 X115.272 Y55.849 E2.63938
G1 X115.29 Y55.938 E2.6436
G1 X115.335 Y56.229 E2.65731
G1 X115.346 Y56.337 E2.66237
G1 X115.36 Y56.668 E2.6778
G1 X115.361 Y72.421 E3.41132
G1 X129.017 Y64.836 E4.13871
G1 X129.091 Y64.421 E4.15833
G1 X129.187 Y64.14 E4.17216
G1 X129.238 Y64.017 E4.17836
G1 X129.362 Y63.768 E4.19131
G1 X129.416 Y63.672 E4.19644
G1 X129.572 Y63.43 E4.20985
G1 X129.645 Y63.332 E4.21554
G1 X129.845 Y63.092 E4.23009
G1 X129.914 Y63.017 E4.23483
G1 X130.135 Y62.801 E4.24922
G1 X130.208 Y62.736 E4.25377
G1 X130.457 Y62.536 E4.26864
G1 X130.537 Y62.478 E4.27325
G1 X130.815 Y62.297 E4.28869
G1 X130.887 Y62.254 E4.2926
G1 X131.188 Y62.092 E4.30851
G1 X131.266 Y62.055 E4.31253
G1 X131.584 Y61.918 E4.32866
G1 X131.658 Y61.889 E4.33236
G1 X131.987 Y61.777 E4.34854
G1 X132.058 Y61.756 E4.35199
G1 X132.416 Y61.663 E4.36921
G1 X132.488 Y61.647 E4.37265
G1 X132.838 Y61.583 E4.38921
G1 X132.925 Y61.57 E4.39331
G1 X133.291 Y61.532 E4.41044
G1 X133.733 Y61.515 E4.43104
G1 X133.806 Y61.515 E4.43444
G1 X134.244 Y61.533 E4.45485
G1 X134.602 Y61.57 E4.47161
G1 X134.681 Y61.582 E4.47533
G1 X135.048 Y61.65 E4.49271
G1 X135.115 Y61.665 E4.49591
G1 X135.476 Y61.758 E4.51327
G1 X135.55 Y61.78 E4.51686
G1 X135.878 Y61.892 E4.533
G1 X135.961 Y61.924 E4.53714
G1 X136.287 Y62.069 E4.55376
G1 X136.353 Y62.101 E4.55717
G1 X136.641 Y62.255 E4.57238
G1 X136.72 Y62.302 E4.57666
G1 X137.002 Y62.488 E4.59239
G1 X137.08 Y62.546 E4.59692
G1 X137.327 Y62.746 E4.61172
G1 X137.393 Y62.804 E4.61581
G1 X137.608 Y63.012 E4.62974
G1 X137.685 Y63.096 E4.63504
G1 X137.885 Y63.339 E4.6497
G1 X138.074 Y63.552 E4.66296
G1 X138.32 Y63.689 E4.67607
G1 X138.518 Y63.89 E4.68921
G1 X138.652 Y64.139 E4.70237
G1 X138.711 Y64.41 E4.71529
G1 X138.73 Y64.664 E4.72715
G1 X138.711 Y64.946 E4.74031
G1 X138.615 Y65.211 E4.75343
G1 X138.54 Y65.313 E4.75933
G1 X138.535 Y65.62 E4.77363
G1 X138.517 Y65.742 E4.77937
G1 X138.462 Y66.009 E4.79206
G1 X138.427 Y66.136 E4.7982
G1 X138.341 Y66.383 E4.81037
G1 X138.293 Y66.497 E4.81613
G1 X138.16 Y66.766 E4.83011
G1 X138.101 Y66.871 E4.83572
G1 X137.94 Y67.117 E4.84941
G1 X137.875 Y67.204 E4.85446
G1 X137.685 Y67.435 E4.86839
G1 X137.607 Y67.52 E4.87376
G1 X137.39 Y67.729 E4.88779
G1 X137.324 Y67.787 E4.89188
G1 X137.071 Y67.991 E4.90701
G1 X136.989 Y68.051 E4.91175
G1 X136.708 Y68.234 E4.92736
G1 X136.633 Y68.278 E4.93141
G1 X136.339 Y68.435 E4.94693
G1 X136.267 Y68.47 E4.95066
G1 X135.945 Y68.61 E4.96701
G1 X135.866 Y68.641 E4.97096
G1 X135.543 Y68.75 E4.98683
G1 X135.464 Y68.775 E4.99069
G1 X135.105 Y68.867 E5.00795
G1 X135.036 Y68.882 E5.01123
G1 X134.687 Y68.946 E5.02776
G1 X134.6 Y68.959 E5.03185
G1 X134.234 Y68.997 E5.04899
G1 X133.798 Y69.015 E5.06931
G1 X133.72 Y69.015 E5.07294
G1 X133.282 Y68.996 E5.09335
G1 X132.925 Y68.959 E5.11006
G1 X132.847 Y68.947 E5.11374
G1 X132.478 Y68.879 E5.13121
G1 X132.379 Y68.857 E5.13593
G1 X115.388 Y78.296 E6.04099
G1 X116.963 Y79.172 E6.12491
G1 X122.161 Y82.288 E6.40711
G1 X126.395 Y85.093 E6.6436
G1 X128.231 Y86.453 E6.74999
G1 X128.27 Y86.483 E6.75228
G1 X129.855 Y87.783 E6.84774
G1 X129.9 Y87.822 E6.85051
G1 X131.272 Y89.091 E6.93753
G1 X131.325 Y89.144 E6.94102
G1 X132.487 Y90.394 E7.02049
G1 X132.546 Y90.463 E7.02472
G1 X133.272 Y91.403 E7.08003
G1 X133.365 Y91.396 E7.08437
G1 X133.738 Y91.383 E7.10175
G1 X133.813 Y91.383 E7.10524
G1 X134.188 Y91.398 E7.12272
G1 X134.256 Y91.403 E7.12589
G1 X134.616 Y91.442 E7.14275
G1 X134.684 Y91.452 E7.14595
G1 X135.042 Y91.516 E7.16289
G1 X135.118 Y91.532 E7.1665
G1 X135.479 Y91.626 E7.18387
G1 X135.553 Y91.649 E7.18748
G1 X135.884 Y91.763 E7.20378
G1 X135.96 Y91.792 E7.20757
G1 X136.272 Y91.929 E7.22344
G1 X136.344 Y91.964 E7.22717
G1 X136.647 Y92.127 E7.24319
G1 X136.723 Y92.173 E7.24732
G1 X137.001 Y92.356 E7.26282
G1 X137.08 Y92.414 E7.26738
G1 X137.327 Y92.614 E7.28218
G1 X137.394 Y92.673 E7.28634
G1 X137.613 Y92.885 E7.30053
G1 X137.689 Y92.967 E7.30574
G1 X137.886 Y93.206 E7.32016
G1 X137.952 Y93.297 E7.3254
G1 X138.099 Y93.523 E7.33795
G1 X138.158 Y93.626 E7.34348
G1 X138.292 Y93.898 E7.3576
G1 X138.341 Y94.014 E7.36346
G1 X138.435 Y94.287 E7.3769
G1 X138.48 Y94.482 E7.38622
G1 X138.547 Y94.988 E7.40999
G1 X138.547 Y95.275 E7.42335
G1 X138.48 Y95.783 E7.44721
G1 X138.436 Y95.975 E7.45639
G1 X138.344 Y96.245 E7.46967
G1 X138.293 Y96.367 E7.47583
G1 X138.159 Y96.637 E7.48986
G1 X138.101 Y96.738 E7.49528
G1 X137.942 Y96.982 E7.50884
G1 X137.875 Y97.073 E7.51411
G1 X137.684 Y97.304 E7.52806
G1 X137.608 Y97.386 E7.53327
G1 X137.391 Y97.596 E7.54733
G1 X137.324 Y97.655 E7.55149
G1 X137.071 Y97.859 E7.56662
G1 X136.989 Y97.919 E7.57135
G1 X136.708 Y98.102 E7.58697
G1 X136.633 Y98.146 E7.59102
G1 X136.339 Y98.303 E7.60654
G1 X136.268 Y98.338 E7.61022
G1 X135.947 Y98.478 E7.62653
G1 X135.868 Y98.508 E7.63046
G1 X135.538 Y98.62 E7.64669
G1 X135.468 Y98.641 E7.65009
G1 X135.132 Y98.728 E7.66626
G1 X134.742 Y98.758 E7.68447
G1 X134.43 Y98.726 E7.69907
G1 X134.43 Y111.865 E8.31088
G1 X134.565 Y112.817 E8.35565
G1 X134.573 Y112.893 E8.35921
G1 X134.696 Y114.803 E8.44833
G1 X134.698 Y114.89 E8.45239
G1 X134.686 Y115.41 E8.4766
G1 X134.733 Y115.423 E8.47888
G1 X135.065 Y115.536 E8.49521
G1 X135.16 Y115.574 E8.49997
G1 X135.498 Y115.729 E8.51728
G1 X135.582 Y115.772 E8.52168
G1 X135.888 Y115.949 E8.53814
G1 X135.967 Y116 E8.54252
G1 X136.252 Y116.203 E8.55881
G1 X136.333 Y116.267 E8.56362
G1 X136.608 Y116.509 E8.58068
G1 X136.674 Y116.573 E8.58496
G1 X136.911 Y116.824 E8.60103
G1 X136.98 Y116.906 E8.60602
G1 X137.196 Y117.19 E8.62264
G1 X137.25 Y117.267 E8.62701
G1 X137.44 Y117.573 E8.64379
G1 X137.486 Y117.657 E8.64825
G1 X137.633 Y117.954 E8.66368
G1 X137.676 Y118.055 E8.66879
G1 X137.798 Y118.389 E8.68535
G1 X137.826 Y118.479 E8.68973
G1 X137.914 Y118.815 E8.70591
G1 X137.936 Y118.92 E8.7109
G1 X137.988 Y119.267 E8.72724
G1 X137.998 Y119.365 E8.73183
G1 X138.015 Y119.707 E8.74777
G1 X138.015 Y119.809 E8.75252
G1 X137.997 Y120.158 E8.7688
G1 X137.986 Y120.26 E8.77357
G1 X137.933 Y120.6 E8.7896
G1 X137.911 Y120.704 E8.79455
G1 X137.819 Y121.049 E8.81117
G1 X137.79 Y121.139 E8.81557
G1 X137.676 Y121.446 E8.83082
G1 X137.637 Y121.538 E8.83548
G1 X137.477 Y121.865 E8.85243
G1 X137.425 Y121.958 E8.85739
G1 X137.235 Y122.26 E8.874
G1 X137.181 Y122.338 E8.87842
G1 X136.979 Y122.6 E8.89383
G1 X136.917 Y122.673 E8.89828
G1 X136.663 Y122.944 E8.91558
G1 X136.586 Y123.017 E8.92052
G1 X136.324 Y123.243 E8.93663
G1 X136.251 Y123.301 E8.94097
G1 X135.956 Y123.511 E8.95784
G1 X135.875 Y123.563 E8.96232
G1 X135.578 Y123.734 E8.97828
G1 X135.495 Y123.776 E8.98261
G1 X135.156 Y123.931 E8.99996
G1 X135.06 Y123.969 E9.00477
G1 X134.723 Y124.083 E9.02134
G1 X134.63 Y124.11 E9.02585
G1 X134.261 Y124.196 E9.04349
G1 X134.172 Y124.212 E9.0477
G1 X133.821 Y124.261 E9.0642
G1 X133.729 Y124.27 E9.06851
G1 X133.384 Y124.286 E9.08459
G1 X133.288 Y124.286 E9.08906
G1 X132.925 Y124.268 E9.10598
G1 X132.834 Y124.259 E9.11024
G1 X132.476 Y124.208 E9.12708
G1 X132.41 Y124.195 E9.13021
G1 X131.663 Y125.476 E9.19926
G1 X131.618 Y125.546 E9.20314
G1 X130.483 Y127.164 E9.29516
G1 X130.44 Y127.221 E9.29849
G1 X129.122 Y128.841 E9.39574
G1 X127.516 Y130.585 E9.50613
G1 X125.774 Y132.298 E9.61989
G1 X125.733 Y132.336 E9.6225
G1 X121.595 Y135.972 E9.87899
G1 X116.575 Y139.963 E10.17762
G1 X114.643 Y141.388 E10.2894
G1 X131.635 Y153.911 E11.27229
G1 X131.961 Y153.801 E11.28831
G1 X132.044 Y153.778 E11.29232
G1 X132.388 Y153.694 E11.30881
G1 X132.484 Y153.675 E11.31336
G1 X132.843 Y153.624 E11.33025
G1 X132.937 Y153.615 E11.33465
G1 X133.3 Y153.598 E11.35157
G1 X133.397 Y153.598 E11.35608
G1 X133.758 Y153.616 E11.37291
G1 X133.85 Y153.625 E11.37722
G1 X134.22 Y153.678 E11.39462
G1 X134.317 Y153.697 E11.39923
G1 X134.65 Y153.779 E11.41519
G1 X134.733 Y153.803 E11.41922
G1 X135.065 Y153.916 E11.43555
G1 X135.16 Y153.954 E11.44031
G1 X135.498 Y154.109 E11.45763
G1 X135.582 Y154.152 E11.46202
G1 X135.888 Y154.329 E11.47848
G1 X135.967 Y154.38 E11.48286
G1 X136.252 Y154.583 E11.49915
G1 X136.333 Y154.647 E11.50396
G1 X136.608 Y154.889 E11.52102
G1 X136.674 Y154.953 E11.5253
G1 X136.911 Y155.204 E11.54137
G1 X136.98 Y155.286 E11.54636
G1 X137.196 Y155.57 E11.56298
G1 X137.25 Y155.647 E11.56736
G1 X137.44 Y155.953 E11.58413
G1 X137.486 Y156.037 E11.58859
G1 X137.633 Y156.334 E11.60402
G1 X137.676 Y156.435 E11.60913
G1 X137.798 Y156.769 E11.62569
G1 X137.826 Y156.859 E11.63008
G1 X137.914 Y157.195 E11.64625
G1 X137.936 Y157.301 E11.65129
G1 X137.987 Y157.643 E11.66739
G1 X137.997 Y157.738 E11.67184
G1 X138.015 Y158.085 E11.68802
G1 X138.015 Y158.189 E11.69286
G1 X137.997 Y158.536 E11.70904
G1 X137.986 Y158.64 E11.71391
G1 X137.931 Y158.988 E11.73032
G1 X137.91 Y159.087 E11.73503
G1 X137.821 Y159.424 E11.75126
G1 X137.792 Y159.515 E11.75571
G1 X137.672 Y159.84 E11.77184
G1 X137.63 Y159.939 E11.77685
G1 X137.48 Y160.241 E11.79255
G1 X137.431 Y160.327 E11.79716
G1 X137.236 Y160.638 E11.81425
G1 X137.181 Y160.718 E11.81877
G1 X136.979 Y160.98 E11.83417
G1 X136.917 Y161.053 E11.83863
G1 X136.663 Y161.324 E11.85593
G1 X136.585 Y161.398 E11.86094
G1 X136.319 Y161.627 E11.87728
G1 X136.247 Y161.684 E11.88156
G1 X135.956 Y161.891 E11.89818
G1 X135.874 Y161.943 E11.90271
G1 X135.564 Y162.121 E11.91935
G1 X135.475 Y162.166 E11.92399
G1 X135.154 Y162.31 E11.94038
G1 X135.074 Y162.342 E11.94439
G1 X134.735 Y162.46 E11.9611
G1 X134.634 Y162.49 E11.96601
G1 X134.275 Y162.574 E11.98318
G1 X134.19 Y162.59 E11.9872
G1 X133.843 Y162.64 E12.00353
G1 X133.746 Y162.649 E12.00807
G1 X133.38 Y162.666 E12.02513
G1 X133.284 Y162.666 E12.0296
G1 X132.924 Y162.648 E12.04638
G1 X132.831 Y162.639 E12.05073
G1 X132.478 Y162.588 E12.06734
G1 X132.387 Y162.57 E12.07166
G1 X132.026 Y162.483 E12.08895
G1 X131.931 Y162.455 E12.09356
G1 X131.604 Y162.341 E12.10969
G1 X131.519 Y162.307 E12.11395
G1 X131.187 Y162.156 E12.13093
G1 X131.098 Y162.11 E12.1356
G1 X130.794 Y161.933 E12.15198
G1 X130.715 Y161.883 E12.15633
G1 X130.424 Y161.675 E12.17299
G1 X130.347 Y161.613 E12.17759
G1 X130.081 Y161.38 E12.19406
G1 X130.012 Y161.313 E12.19853
G1 X129.759 Y161.044 E12.21573
G1 X129.692 Y160.966 E12.22052
G1 X129.491 Y160.703 E12.23593
G1 X129.435 Y160.621 E12.24055
G1 X129.247 Y160.316 E12.25724
G1 X129.201 Y160.233 E12.26166
G1 X129.045 Y159.916 E12.27811
G1 X129.003 Y159.818 E12.28307
G1 X128.885 Y159.496 E12.29904
G1 X128.857 Y159.405 E12.30348
G1 X128.769 Y159.069 E12.31965
G1 X128.735 Y158.886 E12.32832
G1 X115.321 Y149 E13.10423
G1 X115.32 Y163.386 E13.7741
G1 X115.305 Y163.677 E13.78767
G1 X115.295 Y163.776 E13.79231
G1 X115.251 Y164.066 E13.80596
G1 X115.231 Y164.162 E13.81053
G1 X115.156 Y164.458 E13.82475
G1 X115.127 Y164.553 E13.82937
G1 X115.031 Y164.818 E13.8425
G1 X114.995 Y164.905 E13.84688
G1 X114.868 Y165.173 E13.86069
G1 X114.819 Y165.263 E13.86546
G1 X114.667 Y165.514 E13.87913
G1 X114.615 Y165.592 E13.88349
G1 X114.44 Y165.828 E13.89717
G1 X114.376 Y165.906 E13.90187
G1 X114.177 Y166.124 E13.91562
G1 X114.106 Y166.194 E13.92026
G1 X113.879 Y166.398 E13.93447
G1 X113.803 Y166.46 E13.93904
G1 X113.574 Y166.628 E13.95226
G1 X113.497 Y166.679 E13.95656
G1 X113.244 Y166.831 E13.97031
G1 X113.156 Y166.878 E13.97495
G1 X112.891 Y167.003 E13.98859
G1 X112.798 Y167.041 E13.99327
G1 X112.516 Y167.141 E14.0072
G1 X112.419 Y167.171 E14.01193
G1 X112.136 Y167.24 E14.0255
G1 X112.046 Y167.257 E14.02976
G1 X111.756 Y167.3 E14.04341
G1 X111.658 Y167.31 E14.048
G1 X111.322 Y167.325 E14.06366
G1 X108.26 Y167.324 E14.20624
G1 X107.96 Y167.308 E14.22023
G1 X107.86 Y167.297 E14.22491
G1 X107.569 Y167.252 E14.23863
G1 X107.475 Y167.233 E14.24309
G1 X107.188 Y167.16 E14.25688
G1 X107.095 Y167.131 E14.26142
G1 X106.827 Y167.034 E14.27469
G1 X106.738 Y166.997 E14.27918
G1 X106.46 Y166.865 E14.29351
G1 X106.367 Y166.815 E14.29842
G1 X106.127 Y166.668 E14.31153
G1 X106.053 Y166.618 E14.31569
G1 X105.817 Y166.443 E14.32937
G1 X105.74 Y166.379 E14.33403
G1 X105.515 Y166.174 E14.3482
G1 X105.441 Y166.1 E14.35308
G1 X105.245 Y165.88 E14.3668
