;FLAVOR:Marlin
;TIME:4304
;Filament used: 3.55717m
;Layer height: 0.28
;MINX:82.061
;MINY:52.675
;MINZ:0.28
;MAXX:138.114
;MAXY:167.325
;MAXZ:25.2
;Generated with Cura_SteamEngine 4.10.0
M140 S60
M105
M190 S60
M104 S210
M105
M109 S210
M82 ;absolute extrusion mode
M201 X500.00 Y500.00 Z100.00 E5000.00 ;Setup machine max acceleration
M203 X500.00 Y500.00 Z10.00 E50.00 ;Setup machine max feedrate
M204 P500.00 R1000.00 T500.00 ;Setup Print/Retract/Travel acceleration
M205 X8.00 Y8.00 Z0.40 E5.00 ;Setup Jerk
M220 S100 ;Reset Feedrate
M221 S100 ;Reset Flowrate

G28 ;Home

G92 E0 ;Reset Extruder
G1 Z2.0 F3000 ;Move Z Axis up
G1 X10.1 Y20 Z0.28 F5000.0 ;Move to start position
G1 X10.1 Y200.0 Z0.28 F1500.0 E15 ;Draw the first line
G1 X10.4 Y200.0 Z0.28 F5000.0 ;Move to side a little
G1 X10.4 Y20 Z0.28 F1500.0 E30 ;Draw the second line
G92 E0 ;Reset Extruder
G1 Z2.0 F3000 ;Move Z Axis up

G92 E0
G92 E0
G1 F2700 E-5
;LAYER_COUNT:90
;LAYER:0
M107
G0 F6000 X82.844 Y63.338 Z0.28
;TYPE:SKIRT
G1 F2700 E0
G1 F1200 X83.026 Y63.11 E0.01358
G1 X83.091 Y63.037 E0.01814
G1 X83.294 Y62.828 E0.0317
G1 X83.371 Y62.756 E0.03661
G1 X83.627 Y62.543 E0.05212
G1 X83.706 Y62.484 E0.05671
G1 X83.967 Y62.307 E0.07139
G1 X84.043 Y62.26 E0.07555
G1 X84.339 Y62.096 E0.09131
G1 X84.412 Y62.06 E0.0951
G1 X84.711 Y61.925 E0.11038
G1 X84.79 Y61.893 E0.11435
G1 X85.11 Y61.78 E0.13015
G1 X85.184 Y61.757 E0.13376
G1 X85.527 Y61.665 E0.15029
G1 X85.598 Y61.649 E0.15368
G1 X85.933 Y61.585 E0.16956
G1 X86.011 Y61.573 E0.17324
G1 X86.374 Y61.533 E0.19024
G1 X86.448 Y61.528 E0.1937
G1 X86.806 Y61.515 E0.21038
G1 X86.881 Y61.515 E0.21387
G1 X87.237 Y61.529 E0.23046
G1 X87.307 Y61.534 E0.23373
G1 X87.671 Y61.574 E0.25078
G1 X87.75 Y61.586 E0.2545
G1 X88.084 Y61.65 E0.27034
G1 X88.158 Y61.667 E0.27387
G1 X88.489 Y61.757 E0.28984
G1 X88.56 Y61.779 E0.2933
G1 X88.9 Y61.899 E0.31009
G1 X88.983 Y61.933 E0.31427
G1 X89.278 Y62.068 E0.32938
G1 X89.352 Y62.105 E0.33323
G1 X89.651 Y62.273 E0.3492
G1 X89.726 Y62.32 E0.35332
G1 X89.983 Y62.496 E0.36782
G1 X90.058 Y62.553 E0.37221
G1 X90.304 Y62.758 E0.38712
G1 X90.381 Y62.829 E0.392
G1 X90.59 Y63.044 E0.40596
G1 X90.656 Y63.119 E0.41061
G1 X90.838 Y63.348 E0.42423
G1 X90.905 Y63.444 E0.42968
G1 X91.061 Y63.696 E0.44349
G1 X91.113 Y63.79 E0.44849
G1 X91.226 Y64.026 E0.46067
G1 X91.274 Y64.146 E0.46669
G1 X91.369 Y64.435 E0.48085
G1 X91.378 Y64.472 E0.48263
G1 X104.459 Y72.033 E1.18617
G1 X104.46 Y56.623 E1.90372
G1 X104.474 Y56.332 E1.91729
G1 X104.484 Y56.232 E1.92196
G1 X104.528 Y55.938 E1.93581
G1 X104.547 Y55.842 E1.94036
G1 X104.618 Y55.56 E1.9539
G1 X104.648 Y55.464 E1.95859
G1 X104.749 Y55.185 E1.9724
G1 X104.784 Y55.1 E1.97669
G1 X104.909 Y54.834 E1.99037
G1 X104.959 Y54.741 E1.99529
G1 X105.111 Y54.49 E2.00895
G1 X105.16 Y54.416 E2.01308
G1 X105.335 Y54.178 E2.02684
G1 X105.402 Y54.096 E2.03177
G1 X105.6 Y53.879 E2.04545
G1 X105.666 Y53.814 E2.04976
G1 X105.89 Y53.61 E2.06387
G1 X105.973 Y53.542 E2.06887
G1 X106.211 Y53.368 E2.08259
G1 X106.287 Y53.317 E2.08686
G1 X106.534 Y53.169 E2.10026
G1 X106.626 Y53.121 E2.1051
G1 X106.89 Y52.998 E2.11866
G1 X106.974 Y52.963 E2.12289
G1 X107.252 Y52.863 E2.13665
G1 X107.348 Y52.834 E2.14132
G1 X107.633 Y52.763 E2.155
G1 X107.723 Y52.745 E2.15927
G1 X108.015 Y52.7 E2.17303
G1 X108.122 Y52.689 E2.17804
G1 X108.457 Y52.675 E2.19365
G1 X111.514 Y52.676 E2.336
G1 X111.819 Y52.692 E2.35022
G1 X111.918 Y52.702 E2.35485
G1 X112.206 Y52.746 E2.36842
G1 X112.3 Y52.765 E2.37288
G1 X112.589 Y52.838 E2.38676
G1 X112.685 Y52.868 E2.39145
G1 X112.95 Y52.964 E2.40457
G1 X113.039 Y53.001 E2.40906
G1 X113.314 Y53.132 E2.42324
G1 X113.401 Y53.179 E2.42785
G1 X113.643 Y53.325 E2.44101
G1 X113.721 Y53.377 E2.44537
G1 X113.959 Y53.553 E2.45916
G1 X114.038 Y53.618 E2.46392
G1 X114.255 Y53.816 E2.4776
G1 X114.322 Y53.883 E2.48201
G1 X114.525 Y54.107 E2.49609
G1 X114.585 Y54.181 E2.50052
G1 X114.756 Y54.41 E2.51383
G1 X114.816 Y54.499 E2.51883
G1 X114.968 Y54.756 E2.53273
G1 X115.013 Y54.841 E2.53721
G1 X115.136 Y55.104 E2.55073
G1 X115.171 Y55.19 E2.55505
G1 X115.271 Y55.468 E2.56881
G1 X115.3 Y55.564 E2.57348
G1 X115.371 Y55.849 E2.58716
G1 X115.389 Y55.938 E2.59138
G1 X115.434 Y56.229 E2.6051
G1 X115.445 Y56.337 E2.61015
G1 X115.459 Y56.668 E2.62558
G1 X115.461 Y72.29 E3.353
G1 X128.322 Y64.856 E4.04471
G1 X128.332 Y64.783 E4.04814
G1 X128.382 Y64.53 E4.06015
G1 X128.415 Y64.407 E4.06608
G1 X128.503 Y64.144 E4.079
G1 X128.547 Y64.034 E4.08451
G1 X128.668 Y63.778 E4.0977
G1 X128.728 Y63.669 E4.10349
G1 X128.879 Y63.431 E4.11661
G1 X128.943 Y63.341 E4.12176
G1 X129.13 Y63.108 E4.13567
G1 X129.193 Y63.037 E4.14009
G1 X129.396 Y62.828 E4.15366
G1 X129.474 Y62.756 E4.1586
G1 X129.733 Y62.541 E4.17427
G1 X129.813 Y62.481 E4.17893
G1 X130.064 Y62.312 E4.19302
G1 X130.136 Y62.268 E4.19695
G1 X130.441 Y62.098 E4.21321
G1 X130.515 Y62.06 E4.21708
G1 X130.806 Y61.928 E4.23196
G1 X130.886 Y61.896 E4.23597
G1 X131.223 Y61.777 E4.25261
G1 X131.297 Y61.754 E4.25622
G1 X131.629 Y61.665 E4.27223
G1 X131.7 Y61.649 E4.27562
G1 X132.035 Y61.585 E4.2915
G1 X132.114 Y61.573 E4.29522
G1 X132.478 Y61.533 E4.31227
G1 X132.551 Y61.528 E4.31568
G1 X132.908 Y61.515 E4.33231
G1 X132.983 Y61.515 E4.3358
G1 X133.34 Y61.529 E4.35244
G1 X133.411 Y61.534 E4.35575
G1 X133.774 Y61.574 E4.37276
G1 X133.852 Y61.586 E4.37643
G1 X134.186 Y61.65 E4.39227
G1 X134.26 Y61.667 E4.3958
G1 X134.603 Y61.76 E4.41235
G1 X134.673 Y61.782 E4.41577
G1 X134.991 Y61.894 E4.43147
G1 X135.076 Y61.928 E4.43573
G1 X135.381 Y62.068 E4.45136
G1 X135.454 Y62.105 E4.45517
G1 X135.753 Y62.273 E4.47114
G1 X135.828 Y62.32 E4.47526
G1 X136.085 Y62.496 E4.48976
G1 X136.16 Y62.553 E4.49415
G1 X136.406 Y62.758 E4.50906
G1 X136.483 Y62.829 E4.51394
G1 X136.692 Y63.044 E4.5279
G1 X136.758 Y63.119 E4.53255
G1 X136.94 Y63.348 E4.54617
G1 X137.114 Y63.559 E4.55891
G1 X137.359 Y63.7 E4.57207
G1 X137.554 Y63.903 E4.58518
G1 X137.685 Y64.153 E4.59832
G1 X137.739 Y64.411 E4.61059
G1 X137.758 Y64.661 E4.62227
G1 X137.74 Y64.943 E4.63543
G1 X137.643 Y65.208 E4.64857
G1 X137.583 Y65.341 E4.65536
G1 X137.564 Y65.615 E4.66815
G1 X137.547 Y65.74 E4.67402
G1 X137.496 Y65.998 E4.68627
G1 X137.464 Y66.12 E4.69214
G1 X137.376 Y66.384 E4.7051
G1 X137.331 Y66.495 E4.71068
G1 X137.21 Y66.751 E4.72386
G1 X137.15 Y66.86 E4.72966
G1 X136.999 Y67.098 E4.74278
G1 X136.935 Y67.188 E4.74792
G1 X136.748 Y67.421 E4.76183
G1 X136.685 Y67.492 E4.76625
G1 X136.482 Y67.701 E4.77982
G1 X136.403 Y67.774 E4.78483
G1 X136.145 Y67.988 E4.80044
G1 X136.066 Y68.047 E4.80503
G1 X135.814 Y68.217 E4.81918
G1 X135.742 Y68.261 E4.82311
G1 X135.437 Y68.431 E4.83937
G1 X135.364 Y68.468 E4.84318
G1 X135.069 Y68.602 E4.85827
G1 X134.989 Y68.635 E4.8623
G1 X134.667 Y68.749 E4.87821
G1 X134.591 Y68.772 E4.8819
G1 X134.247 Y68.864 E4.89848
G1 X134.177 Y68.88 E4.90183
G1 X133.843 Y68.944 E4.91766
G1 X133.765 Y68.956 E4.92134
G1 X133.402 Y68.996 E4.93834
G1 X133.331 Y69.001 E4.94166
G1 X132.975 Y69.015 E4.95825
G1 X132.894 Y69.015 E4.96202
G1 X132.538 Y69 E4.97861
G1 X132.471 Y68.995 E4.98174
G1 X132.107 Y68.955 E4.99879
G1 X132.031 Y68.944 E5.00237
G1 X131.697 Y68.881 E5.01819
G1 X131.617 Y68.863 E5.02201
G1 X115.296 Y78.296 E5.89979
G1 X116.825 Y79.18 E5.98203
G1 X121.785 Y82.273 E6.25421
G1 X125.946 Y85.142 E6.48956
G1 X127.699 Y86.494 E6.59264
G1 X129.214 Y87.787 E6.68539
G1 X129.258 Y87.827 E6.68815
G1 X130.588 Y89.106 E6.77407
G1 X130.641 Y89.161 E6.77763
G1 X131.758 Y90.412 E6.85572
G1 X131.814 Y90.481 E6.85986
G1 X132.498 Y91.4 E6.91321
G1 X132.557 Y91.396 E6.91596
G1 X132.912 Y91.383 E6.9325
G1 X132.991 Y91.383 E6.93618
G1 X133.351 Y91.398 E6.95296
G1 X133.421 Y91.403 E6.95623
G1 X133.766 Y91.442 E6.97239
G1 X133.84 Y91.453 E6.97588
G1 X134.194 Y91.52 E6.99265
G1 X134.269 Y91.538 E6.99624
G1 X134.602 Y91.628 E7.01231
G1 X134.674 Y91.65 E7.01581
G1 X134.991 Y91.762 E7.03147
G1 X135.073 Y91.795 E7.03558
G1 X135.389 Y91.939 E7.05175
G1 X135.464 Y91.978 E7.05569
G1 X135.743 Y92.135 E7.0706
G1 X135.819 Y92.182 E7.07476
G1 X136.087 Y92.366 E7.08989
G1 X136.161 Y92.422 E7.09422
G1 X136.406 Y92.626 E7.10906
G1 X136.483 Y92.697 E7.11394
G1 X136.692 Y92.912 E7.1279
G1 X136.76 Y92.989 E7.13268
G1 X136.941 Y93.218 E7.14627
G1 X137.005 Y93.31 E7.15149
G1 X137.16 Y93.559 E7.16515
G1 X137.214 Y93.658 E7.1704
G1 X137.335 Y93.913 E7.18354
G1 X137.383 Y94.033 E7.18956
G1 X137.472 Y94.307 E7.20298
G1 X137.513 Y94.489 E7.21166
G1 X137.577 Y94.989 E7.23514
G1 X137.583 Y95.179 E7.24399
G1 X137.565 Y95.466 E7.25738
G1 X137.55 Y95.587 E7.26306
G1 X137.502 Y95.843 E7.27518
G1 X137.468 Y95.973 E7.28144
G1 X137.381 Y96.236 E7.29434
G1 X137.336 Y96.349 E7.3
G1 X137.21 Y96.616 E7.31375
G1 X137.153 Y96.721 E7.31931
G1 X136.999 Y96.966 E7.33279
G1 X136.934 Y97.057 E7.338
G1 X136.758 Y97.278 E7.35115
G1 X136.689 Y97.356 E7.356
G1 X136.47 Y97.579 E7.37055
G1 X136.397 Y97.646 E7.37517
G1 X136.15 Y97.852 E7.39014
G1 X136.069 Y97.913 E7.39487
G1 X135.814 Y98.085 E7.40919
G1 X135.742 Y98.129 E7.41312
G1 X135.439 Y98.298 E7.42927
G1 X135.365 Y98.336 E7.43315
G1 X135.072 Y98.469 E7.44813
G1 X134.992 Y98.501 E7.45214
G1 X134.655 Y98.62 E7.46878
G1 X134.529 Y98.657 E7.4749
G1 X134.529 Y111.999 E8.09616
G1 X134.664 Y112.932 E8.14005
G1 X134.672 Y113.01 E8.14371
G1 X134.795 Y114.911 E8.23241
G1 X134.797 Y114.999 E8.23651
G1 X134.785 Y115.505 E8.26008
G1 X134.842 Y115.521 E8.26283
G1 X135.159 Y115.628 E8.27841
G1 X135.255 Y115.665 E8.2832
G1 X135.592 Y115.819 E8.30046
G1 X135.674 Y115.862 E8.30477
G1 X135.986 Y116.041 E8.32152
G1 X136.064 Y116.09 E8.32581
G1 X136.355 Y116.295 E8.34238
G1 X136.435 Y116.359 E8.34715
G1 X136.697 Y116.587 E8.36332
G1 X136.764 Y116.65 E8.36761
G1 X137.007 Y116.904 E8.38397
G1 X137.076 Y116.985 E8.38893
G1 X137.297 Y117.272 E8.4058
G1 X137.352 Y117.35 E8.41024
G1 X137.531 Y117.635 E8.42591
G1 X137.582 Y117.728 E8.43085
G1 X137.737 Y118.045 E8.44728
G1 X137.775 Y118.131 E8.45166
G1 X137.896 Y118.452 E8.46763
G1 X137.927 Y118.551 E8.47246
G1 X138.011 Y118.871 E8.48787
G1 X138.033 Y118.975 E8.49282
G1 X138.087 Y119.33 E8.50954
G1 X138.097 Y119.43 E8.51422
G1 X138.114 Y119.768 E8.52998
G1 X138.114 Y119.87 E8.53473
G1 X138.096 Y120.213 E8.55072
G1 X138.085 Y120.317 E8.55559
G1 X138.03 Y120.665 E8.57199
G1 X138.009 Y120.765 E8.57675
G1 X137.923 Y121.09 E8.59241
G1 X137.89 Y121.19 E8.59731
G1 X137.768 Y121.51 E8.61326
G1 X137.731 Y121.597 E8.61766
G1 X137.577 Y121.909 E8.63386
G1 X137.524 Y122.002 E8.63885
G1 X137.336 Y122.298 E8.65517
G1 X137.281 Y122.376 E8.65962
G1 X137.067 Y122.651 E8.67584
G1 X137 Y122.729 E8.68063
G1 X136.753 Y122.987 E8.69726
G1 X136.685 Y123.051 E8.70161
G1 X136.426 Y123.275 E8.71756
G1 X136.346 Y123.338 E8.7223
G1 X136.048 Y123.547 E8.73925
G1 X135.968 Y123.597 E8.74364
G1 X135.655 Y123.775 E8.76041
G1 X135.569 Y123.819 E8.7649
G1 X135.249 Y123.962 E8.78122
G1 X135.161 Y123.996 E8.78562
G1 X134.827 Y124.109 E8.80204
G1 X134.736 Y124.135 E8.80644
G1 X134.362 Y124.223 E8.82433
G1 X134.266 Y124.241 E8.82888
G1 X133.916 Y124.288 E8.84532
G1 X133.829 Y124.296 E8.84939
G1 X133.483 Y124.312 E8.86552
G1 X133.387 Y124.312 E8.86999
G1 X133.024 Y124.294 E8.88691
G1 X132.936 Y124.285 E8.89103
G1 X132.577 Y124.235 E8.90791
G1 X132.508 Y124.222 E8.91118
G1 X131.765 Y125.484 E8.97937
G1 X131.719 Y125.554 E8.98327
G1 X130.58 Y127.16 E9.07495
G1 X130.536 Y127.217 E9.07831
G1 X129.213 Y128.826 E9.1753
G1 X129.173 Y128.872 E9.17814
G1 X127.613 Y130.549 E9.28479
G1 X125.871 Y132.245 E9.398
G1 X121.689 Y135.884 E9.65613
G1 X116.699 Y139.812 E9.95184
G1 X114.753 Y141.233 E10.06404
G1 X131.734 Y153.625 E11.04291
G1 X132.059 Y153.515 E11.05888
G1 X132.145 Y153.49 E11.06305
G1 X132.481 Y153.409 E11.07915
G1 X132.578 Y153.39 E11.08375
G1 X132.947 Y153.339 E11.1011
G1 X133.037 Y153.331 E11.1053
G1 X133.399 Y153.314 E11.12218
G1 X133.496 Y153.314 E11.12669
G1 X133.858 Y153.332 E11.14357
G1 X133.948 Y153.341 E11.14778
G1 X134.316 Y153.393 E11.16509
G1 X134.412 Y153.411 E11.16964
G1 X134.75 Y153.493 E11.18583
G1 X134.835 Y153.518 E11.18996
G1 X135.16 Y153.628 E11.20593
G1 X135.255 Y153.665 E11.21068
G1 X135.592 Y153.819 E11.22793
G1 X135.674 Y153.862 E11.23225
G1 X135.986 Y154.041 E11.24899
G1 X136.064 Y154.09 E11.25328
G1 X136.355 Y154.295 E11.26986
G1 X136.435 Y154.359 E11.27463
G1 X136.697 Y154.587 E11.2908
G1 X136.764 Y154.65 E11.29508
G1 X137.007 Y154.904 E11.31145
G1 X137.076 Y154.985 E11.31641
G1 X137.297 Y155.272 E11.33327
G1 X137.352 Y155.35 E11.33772
G1 X137.531 Y155.635 E11.35339
G1 X137.582 Y155.728 E11.35833
G1 X137.737 Y156.045 E11.37476
G1 X137.775 Y156.131 E11.37914
G1 X137.896 Y156.452 E11.39511
G1 X137.927 Y156.551 E11.39994
G1 X138.011 Y156.871 E11.41535
G1 X138.033 Y156.975 E11.4203
G1 X138.087 Y157.33 E11.43702
G1 X138.097 Y157.43 E11.4417
G1 X138.114 Y157.768 E11.45746
G1 X138.114 Y157.87 E11.4622
G1 X138.096 Y158.213 E11.4782
G1 X138.085 Y158.318 E11.48311
G1 X138.029 Y158.67 E11.49971
G1 X138.008 Y158.769 E11.50442
G1 X137.923 Y159.09 E11.51989
G1 X137.891 Y159.189 E11.52473
G1 X137.768 Y159.513 E11.54087
G1 X137.729 Y159.603 E11.54544
G1 X137.575 Y159.913 E11.56155
G1 X137.523 Y160.005 E11.56647
G1 X137.336 Y160.299 E11.5827
G1 X137.281 Y160.376 E11.5871
G1 X137.067 Y160.651 E11.60333
G1 X137 Y160.729 E11.60812
G1 X136.753 Y160.987 E11.62475
G1 X136.684 Y161.052 E11.62916
G1 X136.416 Y161.283 E11.64564
G1 X136.337 Y161.345 E11.65031
G1 X136.059 Y161.54 E11.66613
G1 X135.981 Y161.589 E11.67042
G1 X135.657 Y161.774 E11.68779
G1 X135.569 Y161.819 E11.69239
G1 X135.249 Y161.962 E11.70871
G1 X135.161 Y161.997 E11.71312
G1 X134.826 Y162.11 E11.72958
G1 X134.739 Y162.134 E11.73379
G1 X134.389 Y162.218 E11.75055
G1 X134.294 Y162.236 E11.75505
G1 X133.935 Y162.286 E11.77193
G1 X133.844 Y162.295 E11.77619
G1 X133.48 Y162.312 E11.79315
G1 X133.383 Y162.312 E11.79767
G1 X133.022 Y162.294 E11.8145
G1 X132.931 Y162.285 E11.81876
G1 X132.581 Y162.235 E11.83522
G1 X132.488 Y162.217 E11.83963
G1 X132.126 Y162.13 E11.85697
G1 X132.038 Y162.105 E11.86123
G1 X131.72 Y161.997 E11.87687
G1 X131.631 Y161.961 E11.88134
G1 X131.292 Y161.808 E11.89866
G1 X131.203 Y161.763 E11.9033
G1 X130.898 Y161.587 E11.9197
G1 X130.823 Y161.539 E11.92384
G1 X130.527 Y161.331 E11.94069
G1 X130.446 Y161.268 E11.94547
G1 X130.179 Y161.036 E11.96194
G1 X130.11 Y160.969 E11.96641
G1 X129.868 Y160.714 E11.98278
G1 X129.8 Y160.636 E11.9876
G1 X129.583 Y160.354 E12.00417
G1 X129.529 Y160.276 E12.00859
G1 X129.35 Y159.991 E12.02426
G1 X129.299 Y159.898 E12.0292
G1 X129.144 Y159.581 E12.04563
G1 X129.106 Y159.495 E12.05001
G1 X128.985 Y159.174 E12.06598
G1 X128.953 Y159.073 E12.07092
G1 X128.868 Y158.747 E12.0866
G1 X128.837 Y158.57 E12.09497
G1 X115.42 Y148.78 E12.86836
G1 X115.419 Y163.382 E13.54829
G1 X115.405 Y163.673 E13.56185
G1 X115.394 Y163.778 E13.56677
G1 X115.349 Y164.068 E13.58043
G1 X115.33 Y164.161 E13.58485
G1 X115.255 Y164.457 E13.59907
G1 X115.227 Y164.55 E13.60359
G1 X115.131 Y164.816 E13.61676
G1 X115.094 Y164.905 E13.62125
G1 X114.967 Y165.173 E13.63506
G1 X114.918 Y165.263 E13.63983
G1 X114.766 Y165.514 E13.6535
G1 X114.714 Y165.592 E13.65786
G1 X114.539 Y165.828 E13.67154
G1 X114.475 Y165.906 E13.67624
G1 X114.276 Y166.124 E13.68998
G1 X114.205 Y166.194 E13.69463
G1 X113.978 Y166.398 E13.70884
G1 X113.902 Y166.46 E13.7134
G1 X113.673 Y166.628 E13.72663
G1 X113.596 Y166.679 E13.73093
G1 X113.343 Y166.831 E13.74467
G1 X113.255 Y166.878 E13.74932
G1 X112.99 Y167.003 E13.76296
G1 X112.897 Y167.041 E13.76764
G1 X112.615 Y167.141 E13.78157
G1 X112.518 Y167.171 E13.7863
G1 X112.235 Y167.24 E13.79986
G1 X112.145 Y167.257 E13.80413
G1 X111.855 Y167.3 E13.81778
G1 X111.757 Y167.31 E13.82237
G1 X111.421 Y167.325 E13.83803
G1 X108.359 Y167.324 E13.98061
G1 X108.059 Y167.308 E13.9946
G1 X107.959 Y167.297 E13.99928
G1 X107.668 Y167.252 E14.01299
G1 X107.574 Y167.233 E14.01746
G1 X107.287 Y167.16 E14.03125
G1 X107.194 Y167.131 E14.03578
G1 X106.926 Y167.034 E14.04906
G1 X106.837 Y166.997 E14.05354
G1 X106.559 Y166.865 E14.06787
G1 X106.466 Y166.815 E14.07279
G1 X106.226 Y166.668 E14.0859
G1 X106.152 Y166.618 E14.09005
