;FLAVOR:Marlin
;TIME:4937
;Filament used: 4.05901m
;Layer height: 0.28
;MINX:81.808
;MINY:45.94
;MINZ:0.28
;MAXX:138.072
;MAXY:174.06
;MAXZ:25.76
;Generated with Cura_SteamEngine 4.10.0
M140 S60
M105
M190 S60
M104 S210
M105
M109 S210
M82 ;absolute extrusion mode
M201 X500.00 Y500.00 Z100.00 E5000.00 ;Setup machine max acceleration
M203 X500.00 Y500.00 Z10.00 E50.00 ;Setup machine max feedrate
M204 P500.00 R1000.00 T500.00 ;Setup Print/Retract/Travel acceleration
M205 X8.00 Y8.00 Z0.40 E5.00 ;Setup Jerk
M220 S100 ;Reset Feedrate
M221 S100 ;Reset Flowrate

G28 ;Home

G92 E0 ;Reset Extruder
G1 Z2.0 F3000 ;Move Z Axis up
G1 X10.1 Y20 Z0.28 F5000.0 ;Move to start position
G1 X10.1 Y200.0 Z0.28 F1500.0 E15 ;Draw the first line
G1 X10.4 Y200.0 Z0.28 F5000.0 ;Move to side a little
G1 X10.4 Y20 Z0.28 F1500.0 E30 ;Draw the second line
G92 E0 ;Reset Extruder
G1 Z2.0 F3000 ;Move Z Axis up

G92 E0
G92 E0
G1 F2700 E-5
;LAYER_COUNT:92
;LAYER:0
M107
G0 F6000 X82.581 Y48.969 Z0.28
;TYPE:SKIRT
G1 F2700 E0
G1 F1200 X82.791 Y48.627 E0.01869
G1 X82.843 Y48.55 E0.02301
G1 X83.087 Y48.225 E0.04194
G1 X83.149 Y48.15 E0.04647
G1 X83.427 Y47.846 E0.06565
G1 X83.501 Y47.773 E0.07049
G1 X83.786 Y47.52 E0.08824
G1 X83.866 Y47.456 E0.09301
G1 X84.176 Y47.233 E0.11079
G1 X84.267 Y47.175 E0.11581
G1 X84.595 Y46.989 E0.13337
G1 X84.689 Y46.942 E0.13826
G1 X85.034 Y46.792 E0.15578
G1 X85.145 Y46.751 E0.16129
G1 X85.487 Y46.648 E0.17792
G1 X85.599 Y46.622 E0.18328
G1 X85.946 Y46.56 E0.19969
G1 X86.064 Y46.546 E0.20522
G1 X86.442 Y46.524 E0.22286
G1 X86.563 Y46.524 E0.22849
G1 X86.926 Y46.547 E0.24543
G1 X87.038 Y46.56 E0.25068
G1 X87.393 Y46.623 E0.26747
G1 X87.51 Y46.651 E0.27307
G1 X87.861 Y46.758 E0.29015
G1 X87.967 Y46.798 E0.29543
G1 X88.301 Y46.943 E0.31238
G1 X88.402 Y46.994 E0.31765
G1 X88.73 Y47.183 E0.33528
G1 X88.821 Y47.241 E0.3403
G1 X89.143 Y47.476 E0.35887
G1 X89.221 Y47.54 E0.36356
G1 X89.497 Y47.788 E0.38084
G1 X89.567 Y47.857 E0.38542
G1 X89.842 Y48.158 E0.4044
G1 X89.907 Y48.237 E0.40917
G1 X90.147 Y48.56 E0.42791
G1 X90.196 Y48.633 E0.432
G1 X90.407 Y48.977 E0.45079
G1 X90.449 Y49.053 E0.45483
G1 X90.64 Y49.435 E0.47472
G1 X90.678 Y49.52 E0.47906
G1 X90.83 Y49.911 E0.49859
G1 X90.858 Y49.993 E0.50262
G1 X90.977 Y50.401 E0.52241
G1 X90.996 Y50.476 E0.52602
G1 X91.086 Y50.905 E0.54643
G1 X91.1 Y50.99 E0.55044
G1 X91.131 Y51.244 E0.56235
G1 X104.36 Y63.499 E1.40205
G1 X104.36 Y49.93 E2.03388
G1 X104.381 Y49.55 E2.0516
G1 X104.392 Y49.448 E2.05638
G1 X104.445 Y49.124 E2.07166
G1 X104.47 Y49.012 E2.07701
G1 X104.558 Y48.702 E2.09201
G1 X104.593 Y48.6 E2.09704
G1 X104.719 Y48.289 E2.11266
G1 X104.763 Y48.194 E2.11753
G1 X104.911 Y47.916 E2.1322
G1 X104.968 Y47.822 E2.13732
G1 X105.151 Y47.554 E2.15243
G1 X105.22 Y47.465 E2.15767
G1 X105.439 Y47.211 E2.17329
G1 X105.51 Y47.136 E2.1781
G1 X105.737 Y46.922 E2.19263
G1 X105.82 Y46.853 E2.19765
G1 X106.083 Y46.654 E2.21301
G1 X106.172 Y46.593 E2.21803
G1 X106.456 Y46.423 E2.23345
G1 X106.556 Y46.371 E2.23869
G1 X106.846 Y46.239 E2.25353
G1 X106.946 Y46.2 E2.25853
G1 X107.263 Y46.095 E2.27408
G1 X107.373 Y46.065 E2.27939
G1 X107.689 Y45.999 E2.29442
G1 X107.782 Y45.984 E2.29881
G1 X108.087 Y45.95 E2.3131
G1 X108.336 Y45.94 E2.3247
G1 X111.371 Y45.94 E2.46602
G1 X111.432 Y45.942 E2.46886
G1 X111.758 Y45.962 E2.48407
G1 X111.858 Y45.973 E2.48876
G1 X112.176 Y46.025 E2.50376
G1 X112.288 Y46.05 E2.5091
G1 X112.598 Y46.138 E2.52411
G1 X112.696 Y46.172 E2.52894
G1 X113.001 Y46.294 E2.54424
G1 X113.101 Y46.34 E2.54936
G1 X113.384 Y46.491 E2.5643
G1 X113.479 Y46.549 E2.56948
G1 X113.757 Y46.74 E2.58519
G1 X113.845 Y46.808 E2.59036
G1 X114.09 Y47.02 E2.60545
G1 X114.164 Y47.091 E2.61023
G1 X114.388 Y47.329 E2.62544
G1 X114.46 Y47.414 E2.63063
G1 X114.653 Y47.671 E2.6456
G1 X114.712 Y47.759 E2.65053
G1 X114.873 Y48.029 E2.66517
G1 X114.922 Y48.122 E2.67006
G1 X115.058 Y48.417 E2.68519
G1 X115.099 Y48.522 E2.69044
G1 X115.205 Y48.842 E2.70613
G1 X115.234 Y48.945 E2.71112
G1 X115.3 Y49.251 E2.72569
G1 X115.316 Y49.353 E2.7305
G1 X115.35 Y49.664 E2.74507
G1 X115.36 Y49.911 E2.75658
G1 X115.36 Y63.914 E3.40862
G1 X128.401 Y51.835 E4.23632
G1 X128.415 Y51.5 E4.25193
G1 X128.421 Y51.422 E4.25558
G1 X128.475 Y50.976 E4.2765
G1 X128.49 Y50.889 E4.28061
G1 X128.578 Y50.473 E4.30041
G1 X128.597 Y50.397 E4.30405
G1 X128.721 Y49.977 E4.32445
G1 X128.749 Y49.895 E4.32848
G1 X128.903 Y49.502 E4.34813
G1 X128.94 Y49.419 E4.35237
G1 X129.128 Y49.044 E4.3719
G1 X129.17 Y48.969 E4.3759
G1 X129.38 Y48.627 E4.39459
G1 X129.433 Y48.549 E4.39898
G1 X129.678 Y48.223 E4.41797
G1 X129.74 Y48.148 E4.4225
G1 X130.006 Y47.858 E4.44082
G1 X130.074 Y47.791 E4.44527
G1 X130.374 Y47.521 E4.46406
G1 X130.458 Y47.453 E4.4691
G1 X130.762 Y47.234 E4.48654
G1 X130.851 Y47.176 E4.49149
G1 X131.17 Y46.994 E4.50859
G1 X131.269 Y46.945 E4.51373
G1 X131.625 Y46.791 E4.53179
G1 X131.734 Y46.751 E4.5372
G1 X132.076 Y46.648 E4.55383
G1 X132.188 Y46.622 E4.55919
G1 X132.535 Y46.56 E4.5756
G1 X132.653 Y46.546 E4.58113
G1 X133.031 Y46.524 E4.59876
G1 X133.15 Y46.524 E4.60431
G1 X133.511 Y46.546 E4.62115
G1 X133.628 Y46.56 E4.62663
G1 X133.988 Y46.625 E4.64367
G1 X134.099 Y46.652 E4.64899
G1 X134.447 Y46.757 E4.66591
G1 X134.56 Y46.798 E4.67151
G1 X134.895 Y46.945 E4.68854
G1 X134.991 Y46.994 E4.69356
G1 X135.318 Y47.182 E4.71113
G1 X135.41 Y47.241 E4.71622
G1 X135.732 Y47.476 E4.73478
G1 X135.81 Y47.54 E4.73948
G1 X136.086 Y47.788 E4.75675
G1 X136.156 Y47.857 E4.76133
G1 X136.431 Y48.158 E4.78032
G1 X136.496 Y48.237 E4.78508
G1 X136.736 Y48.56 E4.80382
G1 X136.788 Y48.638 E4.80818
G1 X136.999 Y48.986 E4.82713
G1 X137.037 Y49.055 E4.8308
G1 X137.231 Y49.441 E4.85092
G1 X137.27 Y49.527 E4.85531
G1 X137.386 Y49.824 E4.87016
G1 X137.598 Y49.96 E4.88189
G1 X137.812 Y50.144 E4.89503
G1 X137.966 Y50.381 E4.90819
G1 X138.055 Y50.716 E4.92433
G1 X138.072 Y50.91 E4.9334
G1 X138.057 Y51.191 E4.9465
G1 X137.964 Y51.458 E4.95967
G1 X137.758 Y51.729 E4.97552
G1 X137.766 Y52.022 E4.98917
G1 X137.748 Y52.453 E5.00925
G1 X137.742 Y52.532 E5.01294
G1 X137.688 Y52.976 E5.03377
G1 X137.674 Y53.061 E5.03778
G1 X137.586 Y53.48 E5.05772
G1 X137.566 Y53.557 E5.06142
G1 X137.443 Y53.974 E5.08167
G1 X137.415 Y54.055 E5.08566
G1 X137.266 Y54.436 E5.10471
G1 X137.227 Y54.524 E5.10919
G1 X137.032 Y54.909 E5.12928
G1 X136.995 Y54.975 E5.13281
G1 X136.783 Y55.325 E5.15186
G1 X136.726 Y55.41 E5.15663
G1 X136.484 Y55.73 E5.17531
G1 X136.425 Y55.8 E5.17957
G1 X136.151 Y56.101 E5.19852
G1 X136.079 Y56.173 E5.20327
G1 X135.792 Y56.43 E5.2212
G1 X135.709 Y56.496 E5.22614
G1 X135.398 Y56.72 E5.24399
G1 X135.309 Y56.778 E5.24894
G1 X134.991 Y56.959 E5.26597
G1 X134.893 Y57.008 E5.27108
G1 X134.535 Y57.163 E5.28924
G1 X134.424 Y57.203 E5.29473
G1 X134.085 Y57.304 E5.31121
G1 X133.974 Y57.331 E5.31652
G1 X133.614 Y57.395 E5.33355
G1 X133.497 Y57.408 E5.33903
G1 X133.133 Y57.429 E5.35601
G1 X133.014 Y57.429 E5.36155
G1 X132.652 Y57.407 E5.37844
G1 X132.535 Y57.393 E5.38393
G1 X132.176 Y57.328 E5.40091
G1 X132.065 Y57.301 E5.40623
G1 X131.824 Y57.228 E5.41796
G1 X114.708 Y73.083 E6.50435
G1 X116.952 Y75.161 E6.64676
G1 X122.01 Y80.219 E6.97984
G1 X126.129 Y84.769 E7.26563
G1 X126.165 Y84.811 E7.2682
G1 X127.938 Y87.003 E7.39948
G1 X129.501 Y89.144 E7.52291
G1 X130.84 Y91.209 E7.63751
G1 X130.874 Y91.266 E7.6406
G1 X132.007 Y93.297 E7.7489
G1 X132.041 Y93.364 E7.75239
G1 X132.754 Y94.903 E7.83137
G1 X133.133 Y94.882 E7.84905
G1 X133.291 Y94.885 E7.85641
G1 X133.731 Y94.93 E7.877
G1 X133.863 Y94.953 E7.88324
G1 X134.191 Y95.032 E7.89895
G1 X134.306 Y95.067 E7.90455
G1 X134.652 Y95.196 E7.92174
G1 X134.741 Y95.234 E7.92625
G1 X134.987 Y95.354 E7.93899
G1 X135.077 Y95.404 E7.94379
G1 X135.384 Y95.595 E7.96062
G1 X135.453 Y95.642 E7.96451
G1 X135.731 Y95.849 E7.98065
G1 X135.802 Y95.907 E7.98492
G1 X136.086 Y96.162 E8.00269
G1 X136.156 Y96.231 E8.00727
G1 X136.431 Y96.532 E8.02625
G1 X136.496 Y96.611 E8.03102
G1 X136.736 Y96.934 E8.04976
G1 X136.788 Y97.012 E8.05412
G1 X136.999 Y97.36 E8.07307
G1 X137.037 Y97.429 E8.07674
G1 X137.23 Y97.813 E8.09675
G1 X137.268 Y97.898 E8.10109
G1 X137.417 Y98.279 E8.12014
G1 X137.446 Y98.362 E8.12423
G1 X137.568 Y98.779 E8.14446
G1 X137.587 Y98.857 E8.1482
G1 X137.675 Y99.281 E8.16836
G1 X137.689 Y99.363 E8.17224
G1 X137.743 Y99.807 E8.19306
G1 X137.749 Y99.888 E8.19684
G1 X137.766 Y100.314 E8.2167
G1 X137.766 Y100.396 E8.22052
G1 X137.748 Y100.827 E8.2406
G1 X137.742 Y100.907 E8.24434
G1 X137.688 Y101.347 E8.26498
G1 X137.674 Y101.429 E8.26885
G1 X137.586 Y101.852 E8.28897
G1 X137.565 Y101.934 E8.29291
G1 X137.44 Y102.353 E8.31327
G1 X137.417 Y102.422 E8.31666
G1 X137.287 Y102.764 E8.3337
G1 X137.26 Y102.827 E8.33689
G1 X137.087 Y103.203 E8.35616
G1 X137.055 Y103.267 E8.35949
G1 X136.908 Y103.534 E8.37368
G1 X136.872 Y103.595 E8.37698
G1 X136.709 Y103.847 E8.39096
G1 X136.659 Y103.917 E8.39496
G1 X136.414 Y104.233 E8.41358
G1 X136.349 Y104.309 E8.41824
G1 X136.082 Y104.59 E8.43629
G1 X136.01 Y104.659 E8.44093
G1 X135.735 Y104.896 E8.45784
G1 X135.662 Y104.952 E8.46212
G1 X135.436 Y105.113 E8.47504
G1 X135.359 Y105.163 E8.47932
G1 X135.117 Y105.304 E8.49236
G1 X135.031 Y105.349 E8.49688
G1 X134.704 Y105.499 E8.51363
G1 X134.576 Y105.547 E8.51999
G1 X134.152 Y105.675 E8.54062
G1 X134.023 Y105.705 E8.54679
G1 X133.684 Y105.76 E8.56278
G1 X133.565 Y105.772 E8.56835
G1 X133.207 Y105.786 E8.58503
G1 X133.207 Y118.741 E9.18827
G1 X133.336 Y119.684 E9.23259
G1 X133.343 Y119.758 E9.23605
G1 X133.46 Y121.648 E9.32422
G1 X133.462 Y121.733 E9.32818
G1 X133.45 Y122.25 E9.35226
G1 X133.487 Y122.261 E9.35406
G1 X133.799 Y122.373 E9.3695
G1 X133.891 Y122.411 E9.37413
G1 X134.219 Y122.567 E9.39104
G1 X134.306 Y122.614 E9.39565
G1 X134.584 Y122.782 E9.41077
G1 X134.662 Y122.835 E9.41516
G1 X134.94 Y123.041 E9.43127
G1 X135.02 Y123.106 E9.43607
G1 X135.276 Y123.34 E9.45222
G1 X135.339 Y123.404 E9.45641
G1 X135.571 Y123.658 E9.47242
G1 X135.639 Y123.74 E9.47738
G1 X135.841 Y124.015 E9.49327
G1 X135.893 Y124.093 E9.49764
G1 X136.075 Y124.397 E9.51414
G1 X136.122 Y124.486 E9.51882
G1 X136.266 Y124.793 E9.53461
G1 X136.304 Y124.885 E9.53925
G1 X136.415 Y125.199 E9.55476
G1 X136.443 Y125.291 E9.55923
G1 X136.527 Y125.63 E9.5755
G1 X136.545 Y125.724 E9.57995
G1 X136.594 Y126.054 E9.59549
G1 X136.604 Y126.15 E9.59998
G1 X136.622 Y126.502 E9.61639
G1 X136.622 Y126.605 E9.62119
G1 X136.604 Y126.95 E9.63728
G1 X136.594 Y127.047 E9.64182
G1 X136.543 Y127.386 E9.65778
G1 X136.524 Y127.482 E9.66234
G1 X136.439 Y127.819 E9.67852
G1 X136.41 Y127.911 E9.68301
G1 X136.3 Y128.218 E9.6982
G1 X136.263 Y128.309 E9.70277
G1 X136.107 Y128.638 E9.71973
G1 X136.06 Y128.726 E9.72437
G1 X135.892 Y129.005 E9.73954
G1 X135.839 Y129.084 E9.74397
G1 X135.631 Y129.365 E9.76025
G1 X135.565 Y129.445 E9.76507
G1 X135.331 Y129.701 E9.78122
G1 X135.267 Y129.764 E9.78541
G1 X135.013 Y129.996 E9.80142
G1 X134.931 Y130.064 E9.80638
G1 X134.656 Y130.266 E9.82227
G1 X134.578 Y130.318 E9.82664
G1 X134.274 Y130.5 E9.84314
G1 X134.185 Y130.547 E9.84782
G1 X133.878 Y130.691 E9.86361
G1 X133.784 Y130.73 E9.86835
G1 X133.462 Y130.843 E9.88424
G1 X133.372 Y130.87 E9.88862
G1 X133.033 Y130.954 E9.90488
G1 X132.936 Y130.973 E9.90948
G1 X132.606 Y131.021 E9.92501
G1 X132.51 Y131.03 E9.9295
G1 X132.153 Y131.047 E9.94614
G1 X132.051 Y131.047 E9.95089
G1 X131.721 Y131.029 E9.96628
G1 X131.627 Y131.019 E9.97068
G1 X131.271 Y130.965 E9.98745
G1 X130.578 Y132.199 E10.05335
G1 X130.535 Y132.268 E10.05714
G1 X129.45 Y133.877 E10.1475
G1 X129.408 Y133.935 E10.15084
G1 X128.157 Y135.532 E10.2453
G1 X126.62 Y137.268 E10.35326
G1 X124.973 Y138.955 E10.46305
G1 X120.971 Y142.61 E10.71542
G1 X116.199 Y146.554 E11.00369
G1 X114.354 Y147.968 E11.11193
G1 X130.512 Y160.349 E12.0598
G1 X130.775 Y160.256 E12.07279
G1 X130.865 Y160.229 E12.07716
G1 X131.201 Y160.145 E12.09329
G1 X131.301 Y160.125 E12.09804
G1 X131.64 Y160.076 E12.11399
G1 X131.731 Y160.067 E12.11824
G1 X132.076 Y160.049 E12.13433
G1 X132.18 Y160.049 E12.13917
G1 X132.523 Y160.067 E12.15517
G1 X132.619 Y160.077 E12.15966
G1 X132.96 Y160.128 E12.17572
G1 X133.057 Y160.147 E12.18032
G1 X133.394 Y160.232 E12.1965
G1 X133.487 Y160.261 E12.20104
G1 X133.799 Y160.373 E12.21647
G1 X133.891 Y160.411 E12.22111
G1 X134.219 Y160.567 E12.23802
G1 X134.306 Y160.614 E12.24263
G1 X134.584 Y160.782 E12.25775
G1 X134.663 Y160.835 E12.26218
G1 X134.946 Y161.045 E12.27859
G1 X135.021 Y161.107 E12.28312
G1 X135.274 Y161.336 E12.29901
G1 X135.345 Y161.406 E12.30365
G1 X135.571 Y161.656 E12.31935
G1 X135.634 Y161.734 E12.32401
G1 X135.84 Y162.014 E12.3402
G1 X135.893 Y162.093 E12.34463
G1 X136.075 Y162.397 E12.36113
G1 X136.122 Y162.486 E12.36582
G1 X136.266 Y162.793 E12.38161
G1 X136.304 Y162.885 E12.38624
G1 X136.415 Y163.199 E12.40175
G1 X136.442 Y163.291 E12.40621
G1 X136.526 Y163.629 E12.42243
G1 X136.545 Y163.723 E12.4269
G1 X136.594 Y164.052 E12.44238
G1 X136.604 Y164.148 E12.44688
G1 X136.622 Y164.502 E12.46338
G1 X136.622 Y164.605 E12.46818
G1 X136.604 Y164.948 E12.48417
G1 X136.594 Y165.045 E12.48871
G1 X136.542 Y165.39 E12.50496
G1 X136.523 Y165.486 E12.50952
G1 X136.439 Y165.819 E12.52551
G1 X136.41 Y165.911 E12.53
G1 X136.299 Y166.221 E12.54533
G1 X136.261 Y166.313 E12.54997
G1 X136.106 Y166.639 E12.56678
G1 X136.06 Y166.726 E12.57136
G1 X135.892 Y167.005 E12.58652
G1 X135.839 Y167.084 E12.59095
G1 X135.631 Y167.365 E12.60723
G1 X135.565 Y167.445 E12.61206
G1 X135.331 Y167.701 E12.62821
G1 X135.268 Y167.764 E12.63236
G1 X135.012 Y167.998 E12.64851
G1 X134.928 Y168.067 E12.65357
G1 X134.659 Y168.264 E12.6691
G1 X134.582 Y168.315 E12.6734
G1 X134.275 Y168.499 E12.69006
G1 X134.187 Y168.546 E12.69471
G1 X133.879 Y168.691 E12.71056
G1 X133.785 Y168.729 E12.71528
G1 X133.467 Y168.841 E12.73098
G1 X133.376 Y168.868 E12.7354
G1 X133.042 Y168.951 E12.75143
G1 X132.944 Y168.971 E12.75608
G1 X132.606 Y169.02 E12.77199
G1 X132.515 Y169.029 E12.77625
G1 X132.167 Y169.047 E12.79247
G1 X132.062 Y169.047 E12.79736
G1 X131.722 Y169.029 E12.81321
G1 X131.626 Y169.019 E12.81771
G1 X131.281 Y168.967 E12.83395
G1 X131.185 Y168.948 E12.83851
G1 X130.852 Y168.864 E12.8545
G1 X130.759 Y168.835 E12.85904
G1 X130.45 Y168.724 E12.87433
G1 X130.36 Y168.687 E12.87886
G1 X130.031 Y168.531 E12.89581
G1 X129.941 Y168.482 E12.90059
G1 X129.662 Y168.313 E12.91577
G1 X129.586 Y168.262 E12.92004
G1 X129.307 Y168.056 E12.93618
G1 X129.226 Y167.99 E12.94105
G1 X128.97 Y167.756 E12.9572
G1 X128.907 Y167.693 E12.96135
G1 X128.672 Y167.436 E12.97756
G1 X128.602 Y167.35 E12.98273
G1 X128.404 Y167.078 E12.99839
G1 X128.355 Y167.003 E13.00257
G1 X128.172 Y166.698 E13.01913
G1 X128.124 Y166.609 E13.02384
G1 X127.98 Y166.302 E13.03963
G1 X127.942 Y166.21 E13.04426
G1 X127.83 Y165.893 E13.05992
G1 X127.802 Y165.8 E13.06444
G1 X127.719 Y165.465 E13.08051
G1 X127.689 Y165.288 E13.08887
G1 X115.218 Y155.736 E13.82034
G1 X115.218 Y170.069 E14.48774
G1 X115.198 Y170.445 E14.50527
G1 X115.187 Y170.551 E14.51024
G1 X115.134 Y170.874 E14.52548
G1 X115.109 Y170.983 E14.53068
G1 X115.021 Y171.295 E14.54578
G1 X114.986 Y171.399 E14.55089
G1 X114.86 Y171.71 E14.56651
G1 X114.816 Y171.804 E14.57135
G1 X114.67 Y172.079 E14.58584
G1 X114.613 Y172.173 E14.59096
G1 X114.427 Y172.446 E14.60635
G1 X114.364 Y172.529 E14.6112
G1 X114.165 Y172.764 E14.62554
G1 X114.088 Y172.845 E14.63074
G1 X113.841 Y173.078 E14.64655
G1 X113.757 Y173.15 E14.6517
G1 X113.489 Y173.352 E14.66733
G1 X113.4 Y173.412 E14.67233
G1 X113.132 Y173.572 E14.68686
G1 X113.037 Y173.621 E14.69184
G1 X112.737 Y173.759 E14.70722
G1 X112.632 Y173.801 E14.71248
G1 X112.329 Y173.901 E14.72734
G1 X112.227 Y173.928 E14.73225
G1 X111.898 Y173.999 E14.74792
G1 X111.796 Y174.016 E14.75274
G1 X111.487 Y174.05 E14.76721
G1 X111.242 Y174.06 E14.77863
G1 X108.209 Y174.06 E14.91986
G1 X108.147 Y174.058 E14.92275
G1 X107.823 Y174.038 E14.93787
G1 X107.724 Y174.027 E14.9425
G1 X107.393 Y173.973 E14.95812
G1 X107.28 Y173.948 E14.96351
G1 X106.982 Y173.863 E14.97794
G1 X106.882 Y173.828 E14.98287
G1 X106.567 Y173.701 E14.99869
G1 X106.471 Y173.657 E15.0036
